X:1143
T:The Yellow Rose of Texas
C:Traditional American
S:Colin Hume's website,  colinhume.com  - chords can also be printed below the stave.
Q:1/2=120
M:2/2
R:Reel
L:1/4
%%MIDI ratio 3 1
K:D
A/G/ | "D"FA A>A | B A2 G | FA d>e | f3 f |\
"D"fA A>f | "Em"f e2 d | "A"cd "E7"ef | "A"e3 A |
"D"FA A>A | B A2 G | FA d>e | f3 A |\
"G"Ag g>g | "Em"gf ed | "A7"dA f>e | "D"d3 |]
W:There's a yellow rose in Texas that I am going to see,
W:No other soldier knows her, no soldier only me;
W:She cried so when I left her, it like to broke my heart
W:And if I ever find her, we never more will part.
W:
W:Chorus: She's the sweetest rose of color this soldier ever knew,
W:Her eyes are bright like diamonds, they sparkle like the dew
W:You may talk about your dearest May and sing of Rosa Lee,
W:But the Yellow Rose of Texas is the only girl for me.
W:
W:When  the  Rio Grande is flowing, and the starry skies are bright
W:She walks along the river in the quiet summer night
W:She thinks if I remember, when we parted long ago,
W:I promised to come back again and not to leave her so
W:
W:Oh, now I'm going to find her, for my heart is full of woe
W:And we'll sing the song together, that we sang so long ago
W:We'll play the banjo gaily, and we'll sing the songs of yore,
W:And the Yellow Rose of Texas shall be mine forevermore.

